static/svg/flags/4x3/us.svg

<?xml version="1.0" encoding="UTF-8" standalone="no"?>
<!DOCTYPE svg PUBLIC "-//W3C//DTD SVG 1.1//EN" "http://www.w3.org/Graphics/SVG/1.1/DTD/svg11.dtd">
<svg width="100%" height="100%" viewBox="0 0 640 480" version="1.1" xmlns="http://www.w3.org/2000/svg" xmlns:xlink="http://www.w3.org/1999/xlink" xml:space="preserve" xmlns:serif="http://www.serif.com/" style="fill-rule:evenodd;clip-rule:evenodd;">
    <path d="M0,0L640,0L640,480L0,480" style="fill:rgb(189,61,68);fill-rule:nonzero;"/>
    <path d="M0,55.3L640,55.3M0,129L640,129M0,203L640,203M0,277L640,277M0,351L640,351M0,425L640,425" style="fill-rule:nonzero;stroke:white;stroke-width:37px;"/>
    <g transform="matrix(0.877193,0,0,1,0,0)">
        <path d="M0,0L364.8,0L364.8,258.5L0,258.5" style="fill:rgb(25,47,93);fill-rule:nonzero;"/>
    </g>
    <g>
        <g transform="matrix(0.812445,0,0,0.812445,1.22415,2.22381)">
            <path d="M38.843,12.826L42.976,25.549L56.354,25.549L45.531,33.412L49.665,46.135L38.843,38.272L28.02,46.135L32.154,33.412L21.331,25.549L34.709,25.549L38.843,12.826Z" style="fill:white;"/>
        </g>
        <g transform="matrix(0.812445,0,0,0.812445,1.22415,36.582)">
            <path d="M38.843,12.826L42.976,25.549L56.354,25.549L45.531,33.412L49.665,46.135L38.843,38.272L28.02,46.135L32.154,33.412L21.331,25.549L34.709,25.549L38.843,12.826Z" style="fill:white;"/>
        </g>
        <g transform="matrix(0.812445,0,0,0.812445,1.22415,70.9403)">
            <path d="M38.843,12.826L42.976,25.549L56.354,25.549L45.531,33.412L49.665,46.135L38.843,38.272L28.02,46.135L32.154,33.412L21.331,25.549L34.709,25.549L38.843,12.826Z" style="fill:white;"/>
        </g>
        <g transform="matrix(0.812445,0,0,0.812445,1.22415,105.299)">
            <path d="M38.843,12.826L42.976,25.549L56.354,25.549L45.531,33.412L49.665,46.135L38.843,38.272L28.02,46.135L32.154,33.412L21.331,25.549L34.709,25.549L38.843,12.826Z" style="fill:white;"/>
        </g>
        <g transform="matrix(0.812445,0,0,0.812445,1.22415,139.657)">
            <path d="M38.843,12.826L42.976,25.549L56.354,25.549L45.531,33.412L49.665,46.135L38.843,38.272L28.02,46.135L32.154,33.412L21.331,25.549L34.709,25.549L38.843,12.826Z" style="fill:white;"/>
        </g>
        <g transform="matrix(0.812445,0,0,0.812445,1.22415,174.015)">
            <path d="M38.843,12.826L42.976,25.549L56.354,25.549L45.531,33.412L49.665,46.135L38.843,38.272L28.02,46.135L32.154,33.412L21.331,25.549L34.709,25.549L38.843,12.826Z" style="fill:white;"/>
        </g>
        <g transform="matrix(0.812445,0,0,0.812445,1.22415,208.373)">
            <path d="M38.843,12.826L42.976,25.549L56.354,25.549L45.531,33.412L49.665,46.135L38.843,38.272L28.02,46.135L32.154,33.412L21.331,25.549L34.709,25.549L38.843,12.826Z" style="fill:white;"/>
        </g>
    </g>
    <g transform="matrix(1,0,0,1,35.0398,0)">
        <g transform="matrix(0.812445,0,0,0.812445,1.22415,2.22381)">
            <path d="M38.843,12.826L42.976,25.549L56.354,25.549L45.531,33.412L49.665,46.135L38.843,38.272L28.02,46.135L32.154,33.412L21.331,25.549L34.709,25.549L38.843,12.826Z" style="fill:white;"/>
        </g>
        <g transform="matrix(0.812445,0,0,0.812445,1.22415,36.582)">
            <path d="M38.843,12.826L42.976,25.549L56.354,25.549L45.531,33.412L49.665,46.135L38.843,38.272L28.02,46.135L32.154,33.412L21.331,25.549L34.709,25.549L38.843,12.826Z" style="fill:white;"/>
        </g>
        <g transform="matrix(0.812445,0,0,0.812445,1.22415,70.9403)">
            <path d="M38.843,12.826L42.976,25.549L56.354,25.549L45.531,33.412L49.665,46.135L38.843,38.272L28.02,46.135L32.154,33.412L21.331,25.549L34.709,25.549L38.843,12.826Z" style="fill:white;"/>
        </g>
        <g transform="matrix(0.812445,0,0,0.812445,1.22415,105.299)">
            <path d="M38.843,12.826L42.976,25.549L56.354,25.549L45.531,33.412L49.665,46.135L38.843,38.272L28.02,46.135L32.154,33.412L21.331,25.549L34.709,25.549L38.843,12.826Z" style="fill:white;"/>
        </g>
        <g transform="matrix(0.812445,0,0,0.812445,1.22415,139.657)">
            <path d="M38.843,12.826L42.976,25.549L56.354,25.549L45.531,33.412L49.665,46.135L38.843,38.272L28.02,46.135L32.154,33.412L21.331,25.549L34.709,25.549L38.843,12.826Z" style="fill:white;"/>
        </g>
        <g transform="matrix(0.812445,0,0,0.812445,1.22415,174.015)">
            <path d="M38.843,12.826L42.976,25.549L56.354,25.549L45.531,33.412L49.665,46.135L38.843,38.272L28.02,46.135L32.154,33.412L21.331,25.549L34.709,25.549L38.843,12.826Z" style="fill:white;"/>
        </g>
        <g transform="matrix(0.812445,0,0,0.812445,1.22415,208.373)">
            <path d="M38.843,12.826L42.976,25.549L56.354,25.549L45.531,33.412L49.665,46.135L38.843,38.272L28.02,46.135L32.154,33.412L21.331,25.549L34.709,25.549L38.843,12.826Z" style="fill:white;"/>
        </g>
    </g>
    <g transform="matrix(1,0,0,1,70.0795,0)">
        <g transform="matrix(0.812445,0,0,0.812445,1.22415,2.22381)">
            <path d="M38.843,12.826L42.976,25.549L56.354,25.549L45.531,33.412L49.665,46.135L38.843,38.272L28.02,46.135L32.154,33.412L21.331,25.549L34.709,25.549L38.843,12.826Z" style="fill:white;"/>
        </g>
        <g transform="matrix(0.812445,0,0,0.812445,1.22415,36.582)">
            <path d="M38.843,12.826L42.976,25.549L56.354,25.549L45.531,33.412L49.665,46.135L38.843,38.272L28.02,46.135L32.154,33.412L21.331,25.549L34.709,25.549L38.843,12.826Z" style="fill:white;"/>
        </g>
        <g transform="matrix(0.812445,0,0,0.812445,1.22415,70.9403)">
            <path d="M38.843,12.826L42.976,25.549L56.354,25.549L45.531,33.412L49.665,46.135L38.843,38.272L28.02,46.135L32.154,33.412L21.331,25.549L34.709,25.549L38.843,12.826Z" style="fill:white;"/>
        </g>
        <g transform="matrix(0.812445,0,0,0.812445,1.22415,105.299)">
            <path d="M38.843,12.826L42.976,25.549L56.354,25.549L45.531,33.412L49.665,46.135L38.843,38.272L28.02,46.135L32.154,33.412L21.331,25.549L34.709,25.549L38.843,12.826Z" style="fill:white;"/>
        </g>
        <g transform="matrix(0.812445,0,0,0.812445,1.22415,139.657)">
            <path d="M38.843,12.826L42.976,25.549L56.354,25.549L45.531,33.412L49.665,46.135L38.843,38.272L28.02,46.135L32.154,33.412L21.331,25.549L34.709,25.549L38.843,12.826Z" style="fill:white;"/>
        </g>
        <g transform="matrix(0.812445,0,0,0.812445,1.22415,174.015)">
            <path d="M38.843,12.826L42.976,25.549L56.354,25.549L45.531,33.412L49.665,46.135L38.843,38.272L28.02,46.135L32.154,33.412L21.331,25.549L34.709,25.549L38.843,12.826Z" style="fill:white;"/>
        </g>
        <g transform="matrix(0.812445,0,0,0.812445,1.22415,208.373)">
            <path d="M38.843,12.826L42.976,25.549L56.354,25.549L45.531,33.412L49.665,46.135L38.843,38.272L28.02,46.135L32.154,33.412L21.331,25.549L34.709,25.549L38.843,12.826Z" style="fill:white;"/>
        </g>
    </g>
    <g transform="matrix(1,0,0,1,105.119,0)">
        <g transform="matrix(0.812445,0,0,0.812445,1.22415,2.22381)">
            <path d="M38.843,12.826L42.976,25.549L56.354,25.549L45.531,33.412L49.665,46.135L38.843,38.272L28.02,46.135L32.154,33.412L21.331,25.549L34.709,25.549L38.843,12.826Z" style="fill:white;"/>
        </g>
        <g transform="matrix(0.812445,0,0,0.812445,1.22415,36.582)">
            <path d="M38.843,12.826L42.976,25.549L56.354,25.549L45.531,33.412L49.665,46.135L38.843,38.272L28.02,46.135L32.154,33.412L21.331,25.549L34.709,25.549L38.843,12.826Z" style="fill:white;"/>
        </g>
        <g transform="matrix(0.812445,0,0,0.812445,1.22415,70.9403)">
            <path d="M38.843,12.826L42.976,25.549L56.354,25.549L45.531,33.412L49.665,46.135L38.843,38.272L28.02,46.135L32.154,33.412L21.331,25.549L34.709,25.549L38.843,12.826Z" style="fill:white;"/>
        </g>
        <g transform="matrix(0.812445,0,0,0.812445,1.22415,105.299)">
            <path d="M38.843,12.826L42.976,25.549L56.354,25.549L45.531,33.412L49.665,46.135L38.843,38.272L28.02,46.135L32.154,33.412L21.331,25.549L34.709,25.549L38.843,12.826Z" style="fill:white;"/>
        </g>
        <g transform="matrix(0.812445,0,0,0.812445,1.22415,139.657)">
            <path d="M38.843,12.826L42.976,25.549L56.354,25.549L45.531,33.412L49.665,46.135L38.843,38.272L28.02,46.135L32.154,33.412L21.331,25.549L34.709,25.549L38.843,12.826Z" style="fill:white;"/>
        </g>
        <g transform="matrix(0.812445,0,0,0.812445,1.22415,174.015)">
            <path d="M38.843,12.826L42.976,25.549L56.354,25.549L45.531,33.412L49.665,46.135L38.843,38.272L28.02,46.135L32.154,33.412L21.331,25.549L34.709,25.549L38.843,12.826Z" style="fill:white;"/>
        </g>
        <g transform="matrix(0.812445,0,0,0.812445,1.22415,208.373)">
            <path d="M38.843,12.826L42.976,25.549L56.354,25.549L45.531,33.412L49.665,46.135L38.843,38.272L28.02,46.135L32.154,33.412L21.331,25.549L34.709,25.549L38.843,12.826Z" style="fill:white;"/>
        </g>
    </g>
    <g transform="matrix(1,0,0,1,140.159,0)">
        <g transform="matrix(0.812445,0,0,0.812445,1.22415,2.22381)">
            <path d="M38.843,12.826L42.976,25.549L56.354,25.549L45.531,33.412L49.665,46.135L38.843,38.272L28.02,46.135L32.154,33.412L21.331,25.549L34.709,25.549L38.843,12.826Z" style="fill:white;"/>
        </g>
        <g transform="matrix(0.812445,0,0,0.812445,1.22415,36.582)">
            <path d="M38.843,12.826L42.976,25.549L56.354,25.549L45.531,33.412L49.665,46.135L38.843,38.272L28.02,46.135L32.154,33.412L21.331,25.549L34.709,25.549L38.843,12.826Z" style="fill:white;"/>
        </g>
        <g transform="matrix(0.812445,0,0,0.812445,1.22415,70.9403)">
            <path d="M38.843,12.826L42.976,25.549L56.354,25.549L45.531,33.412L49.665,46.135L38.843,38.272L28.02,46.135L32.154,33.412L21.331,25.549L34.709,25.549L38.843,12.826Z" style="fill:white;"/>
        </g>
        <g transform="matrix(0.812445,0,0,0.812445,1.22415,105.299)">
            <path d="M38.843,12.826L42.976,25.549L56.354,25.549L45.531,33.412L49.665,46.135L38.843,38.272L28.02,46.135L32.154,33.412L21.331,25.549L34.709,25.549L38.843,12.826Z" style="fill:white;"/>
        </g>
        <g transform="matrix(0.812445,0,0,0.812445,1.22415,139.657)">
            <path d="M38.843,12.826L42.976,25.549L56.354,25.549L45.531,33.412L49.665,46.135L38.843,38.272L28.02,46.135L32.154,33.412L21.331,25.549L34.709,25.549L38.843,12.826Z" style="fill:white;"/>
        </g>
        <g transform="matrix(0.812445,0,0,0.812445,1.22415,174.015)">
            <path d="M38.843,12.826L42.976,25.549L56.354,25.549L45.531,33.412L49.665,46.135L38.843,38.272L28.02,46.135L32.154,33.412L21.331,25.549L34.709,25.549L38.843,12.826Z" style="fill:white;"/>
        </g>
        <g transform="matrix(0.812445,0,0,0.812445,1.22415,208.373)">
            <path d="M38.843,12.826L42.976,25.549L56.354,25.549L45.531,33.412L49.665,46.135L38.843,38.272L28.02,46.135L32.154,33.412L21.331,25.549L34.709,25.549L38.843,12.826Z" style="fill:white;"/>
        </g>
    </g>
    <g transform="matrix(1,0,0,1,175.199,0)">
        <g transform="matrix(0.812445,0,0,0.812445,1.22415,2.22381)">
            <path d="M38.843,12.826L42.976,25.549L56.354,25.549L45.531,33.412L49.665,46.135L38.843,38.272L28.02,46.135L32.154,33.412L21.331,25.549L34.709,25.549L38.843,12.826Z" style="fill:white;"/>
        </g>
        <g transform="matrix(0.812445,0,0,0.812445,1.22415,36.582)">
            <path d="M38.843,12.826L42.976,25.549L56.354,25.549L45.531,33.412L49.665,46.135L38.843,38.272L28.02,46.135L32.154,33.412L21.331,25.549L34.709,25.549L38.843,12.826Z" style="fill:white;"/>
        </g>
        <g transform="matrix(0.812445,0,0,0.812445,1.22415,70.9403)">
            <path d="M38.843,12.826L42.976,25.549L56.354,25.549L45.531,33.412L49.665,46.135L38.843,38.272L28.02,46.135L32.154,33.412L21.331,25.549L34.709,25.549L38.843,12.826Z" style="fill:white;"/>
        </g>
        <g transform="matrix(0.812445,0,0,0.812445,1.22415,105.299)">
            <path d="M38.843,12.826L42.976,25.549L56.354,25.549L45.531,33.412L49.665,46.135L38.843,38.272L28.02,46.135L32.154,33.412L21.331,25.549L34.709,25.549L38.843,12.826Z" style="fill:white;"/>
        </g>
        <g transform="matrix(0.812445,0,0,0.812445,1.22415,139.657)">
            <path d="M38.843,12.826L42.976,25.549L56.354,25.549L45.531,33.412L49.665,46.135L38.843,38.272L28.02,46.135L32.154,33.412L21.331,25.549L34.709,25.549L38.843,12.826Z" style="fill:white;"/>
        </g>
        <g transform="matrix(0.812445,0,0,0.812445,1.22415,174.015)">
            <path d="M38.843,12.826L42.976,25.549L56.354,25.549L45.531,33.412L49.665,46.135L38.843,38.272L28.02,46.135L32.154,33.412L21.331,25.549L34.709,25.549L38.843,12.826Z" style="fill:white;"/>
        </g>
        <g transform="matrix(0.812445,0,0,0.812445,1.22415,208.373)">
            <path d="M38.843,12.826L42.976,25.549L56.354,25.549L45.531,33.412L49.665,46.135L38.843,38.272L28.02,46.135L32.154,33.412L21.331,25.549L34.709,25.549L38.843,12.826Z" style="fill:white;"/>
        </g>
    </g>
    <g transform="matrix(1,0,0,1,210.239,0)">
        <g transform="matrix(0.812445,0,0,0.812445,1.22415,2.22381)">
            <path d="M38.843,12.826L42.976,25.549L56.354,25.549L45.531,33.412L49.665,46.135L38.843,38.272L28.02,46.135L32.154,33.412L21.331,25.549L34.709,25.549L38.843,12.826Z" style="fill:white;"/>
        </g>
        <g transform="matrix(0.812445,0,0,0.812445,1.22415,36.582)">
            <path d="M38.843,12.826L42.976,25.549L56.354,25.549L45.531,33.412L49.665,46.135L38.843,38.272L28.02,46.135L32.154,33.412L21.331,25.549L34.709,25.549L38.843,12.826Z" style="fill:white;"/>
        </g>
        <g transform="matrix(0.812445,0,0,0.812445,1.22415,70.9403)">
            <path d="M38.843,12.826L42.976,25.549L56.354,25.549L45.531,33.412L49.665,46.135L38.843,38.272L28.02,46.135L32.154,33.412L21.331,25.549L34.709,25.549L38.843,12.826Z" style="fill:white;"/>
        </g>
        <g transform="matrix(0.812445,0,0,0.812445,1.22415,105.299)">
            <path d="M38.843,12.826L42.976,25.549L56.354,25.549L45.531,33.412L49.665,46.135L38.843,38.272L28.02,46.135L32.154,33.412L21.331,25.549L34.709,25.549L38.843,12.826Z" style="fill:white;"/>
        </g>
        <g transform="matrix(0.812445,0,0,0.812445,1.22415,139.657)">
            <path d="M38.843,12.826L42.976,25.549L56.354,25.549L45.531,33.412L49.665,46.135L38.843,38.272L28.02,46.135L32.154,33.412L21.331,25.549L34.709,25.549L38.843,12.826Z" style="fill:white;"/>
        </g>
        <g transform="matrix(0.812445,0,0,0.812445,1.22415,174.015)">
            <path d="M38.843,12.826L42.976,25.549L56.354,25.549L45.531,33.412L49.665,46.135L38.843,38.272L28.02,46.135L32.154,33.412L21.331,25.549L34.709,25.549L38.843,12.826Z" style="fill:white;"/>
        </g>
        <g transform="matrix(0.812445,0,0,0.812445,1.22415,208.373)">
            <path d="M38.843,12.826L42.976,25.549L56.354,25.549L45.531,33.412L49.665,46.135L38.843,38.272L28.02,46.135L32.154,33.412L21.331,25.549L34.709,25.549L38.843,12.826Z" style="fill:white;"/>
        </g>
    </g>
    <g transform="matrix(1,0,0,1,245.278,0)">
        <g transform="matrix(0.812445,0,0,0.812445,1.22415,2.22381)">
            <path d="M38.843,12.826L42.976,25.549L56.354,25.549L45.531,33.412L49.665,46.135L38.843,38.272L28.02,46.135L32.154,33.412L21.331,25.549L34.709,25.549L38.843,12.826Z" style="fill:white;"/>
        </g>
        <g transform="matrix(0.812445,0,0,0.812445,1.22415,36.582)">
            <path d="M38.843,12.826L42.976,25.549L56.354,25.549L45.531,33.412L49.665,46.135L38.843,38.272L28.02,46.135L32.154,33.412L21.331,25.549L34.709,25.549L38.843,12.826Z" style="fill:white;"/>
        </g>
        <g transform="matrix(0.812445,0,0,0.812445,1.22415,70.9403)">
            <path d="M38.843,12.826L42.976,25.549L56.354,25.549L45.531,33.412L49.665,46.135L38.843,38.272L28.02,46.135L32.154,33.412L21.331,25.549L34.709,25.549L38.843,12.826Z" style="fill:white;"/>
        </g>
        <g transform="matrix(0.812445,0,0,0.812445,1.22415,105.299)">
            <path d="M38.843,12.826L42.976,25.549L56.354,25.549L45.531,33.412L49.665,46.135L38.843,38.272L28.02,46.135L32.154,33.412L21.331,25.549L34.709,25.549L38.843,12.826Z" style="fill:white;"/>
        </g>
        <g transform="matrix(0.812445,0,0,0.812445,1.22415,139.657)">
            <path d="M38.843,12.826L42.976,25.549L56.354,25.549L45.531,33.412L49.665,46.135L38.843,38.272L28.02,46.135L32.154,33.412L21.331,25.549L34.709,25.549L38.843,12.826Z" style="fill:white;"/>
        </g>
        <g transform="matrix(0.812445,0,0,0.812445,1.22415,174.015)">
            <path d="M38.843,12.826L42.976,25.549L56.354,25.549L45.531,33.412L49.665,46.135L38.843,38.272L28.02,46.135L32.154,33.412L21.331,25.549L34.709,25.549L38.843,12.826Z" style="fill:white;"/>
        </g>
        <g transform="matrix(0.812445,0,0,0.812445,1.22415,208.373)">
            <path d="M38.843,12.826L42.976,25.549L56.354,25.549L45.531,33.412L49.665,46.135L38.843,38.272L28.02,46.135L32.154,33.412L21.331,25.549L34.709,25.549L38.843,12.826Z" style="fill:white;"/>
        </g>
    </g>
</svg>

<svg xmlns="http://www.w3.org/2000/svg" id="flag-icons-us" viewBox="0 0 640 480">
  <path fill="#bd3d44" d="M0 0h640v480H0"/>
  <path stroke="#fff" stroke-width="37" d="M0 55.3h640M0 129h640M0 203h640M0 277h640M0 351h640M0 425h640"/>
  <path fill="#192f5d" d="M0 0h364.8v258.5H0"/>
  <marker id="us-a" markerHeight="30" markerWidth="30">
    <path fill="#fff" d="m14 0 9 27L0 10h28L5 27z"/>
  </marker>
  <path fill="none" marker-mid="url(#us-a)" d="m0 0 16 11h61 61 61 61 60L47 37h61 61 60 61L16 63h61 61 61 61 60L47 89h61 61 60 61L16 115h61 61 61 61 60L47 141h61 61 60 61L16 166h61 61 61 61 60L47 192h61 61 60 61L16 218h61 61 61 61 60L0 0"/>
</svg>
